X:387
T: Das Haus (4-86), S. 111
N: P0657
O: Lothringen
S: PINCK, Louis: Verklingende Weisen Bd 4, Kassel 1939]
R: ???]
M: 3/4
L: 1/8
K: G
 | G4A2 | B2B2D2 | B2B2A2 | G2G2D2
G4A2 | B2B2D2 | B2B2A2 | G6
G2G2A2 | G4DD | GGG2A2 | B4DD
G2G2AA | B4D2 | B2B2A2 | G6
d2d2d2 | B2A2G2
G4A2 | B2B2D2 | B2B2A2 | G2G2D2
G4A2 | B2B2D2 | B2B2A2 | G6

